www/images/image.svg

<svg fill="none" height="75" viewBox="0 0 75 75" width="75" xmlns="http://www.w3.org/2000/svg"><g clip-rule="evenodd" fill="#fff" fill-rule="evenodd"><path d="m50.3915 30.7514c-1.2401 3.1767-4.1549 5.2484-7.3922 5.2484l.0002.0002c-4.4172 0-7.9995-3.8062-7.9995-8.4994 0-3.4397 1.9499-6.5367 4.9397-7.8541 2.9898-1.3147 6.4296-.5869 8.7169 1.8433 2.2874 2.4301 2.9723 6.0849 1.7349 9.2616zm-3.695-4.8791c-.6199-1.5884-2.0798-2.6216-3.6972-2.6216l-.0001.0001c-2.2073 0-3.9997 1.9017-3.9997 4.2497 0 1.7184.975 3.2669 2.4699 3.9256 1.4948.6587 3.2147.2948 4.3597-.9217 1.1424-1.2165 1.4849-3.0438.8674-4.6321z"/><path d="m56.9003 10h-37.8006c-4.4725 0-8.0997 3.6944-8.0997 8.2497v38.5006c0 4.5553 3.6272 8.2497 8.0997 8.2497h37.8006c4.4725 0 8.0997-3.6944 8.0997-8.2497v-38.5006c0-4.5553-3.6272-8.2497-8.0997-8.2497zm-37.8006 4.1249h37.8006c2.235 0 4.0498 1.8484 4.0498 4.1248v32.8082l-7.8716-8.059c-1.1365-1.1601-2.6805-1.8149-4.2929-1.8149-1.6098 0-3.1538.6548-4.2928 1.8149l-4.4828 4.5503-11.2153-11.4105-.0008-.0008c-1.1389-1.1622-2.6826-1.8141-4.292-1.8141-1.6124 0-3.1564.6522-4.2929 1.8149l-5.1585 5.2927v-23.1817c0-2.2764 1.8149-4.1249 4.0499-4.1249zm-4.0498 42.6254v-9.474l8.0187-8.1673c.7999-.7811 2.0629-.7811 2.8628 0l21.3703 21.7661h-28.202c-2.235 0-4.0498-1.8484-4.0498-4.1248zm37.9878 4.1248h3.86l.0019-.0002c2.1844 0 3.9765-1.7634 4.0499-3.9883l-10.7319-10.918c-.7998-.7812-2.0629-.7812-2.8627 0v.0026l-4.4827 4.5502z"/></g></svg>

<svg width="75" height="75" viewBox="0 0 75 75" fill="none" xmlns="http://www.w3.org/2000/svg">
<path fill-rule="evenodd" clip-rule="evenodd" d="M50.3915 30.7514C49.1514 33.9281 46.2366 35.9998 42.9993 35.9998L42.9995 36C38.5823 36 35 32.1938 35 27.5006C35 24.0609 36.9499 20.9639 39.9397 19.6465C42.9295 18.3318 46.3693 19.0596 48.6566 21.4898C50.944 23.9199 51.6289 27.5747 50.3915 30.7514ZM46.6965 25.8723C46.0766 24.2839 44.6167 23.2507 42.9993 23.2507L42.9992 23.2508C40.7919 23.2508 38.9995 25.1525 38.9995 27.5005C38.9995 29.2189 39.9745 30.7674 41.4694 31.4261C42.9642 32.0848 44.6841 31.7209 45.8291 30.5044C46.9715 29.2879 47.314 27.4606 46.6965 25.8723Z" fill="white"/>
<path fill-rule="evenodd" clip-rule="evenodd" d="M56.9003 10H19.0997C14.6272 10 11 13.6944 11 18.2497V56.7503C11 61.3056 14.6272 65 19.0997 65H56.9003C61.3728 65 65 61.3056 65 56.7503V18.2497C65 13.6944 61.3728 10 56.9003 10ZM19.0997 14.1249H56.9003C59.1353 14.1249 60.9501 15.9733 60.9501 18.2497V51.0579L53.0785 42.9989C51.942 41.8388 50.398 41.184 48.7856 41.184C47.1758 41.184 45.6318 41.8388 44.4928 42.9989L40.01 47.5492L28.7947 36.1387L28.7939 36.1379C27.655 34.9757 26.1113 34.3238 24.5019 34.3238C22.8895 34.3238 21.3455 34.976 20.209 36.1387L15.0505 41.4314V18.2497C15.0505 15.9733 16.8654 14.1248 19.1004 14.1248L19.0997 14.1249ZM15.0499 56.7503V47.2763L23.0686 39.109C23.8685 38.3279 25.1315 38.3279 25.9314 39.109L47.3017 60.8751H19.0997C16.8647 60.8751 15.0499 59.0267 15.0499 56.7503ZM53.0377 60.8751H56.8977L56.8996 60.8749C59.084 60.8749 60.8761 59.1115 60.9495 56.8866L50.2176 45.9686C49.4178 45.1874 48.1547 45.1874 47.3549 45.9686V45.9712L42.8722 50.5214L53.0377 60.8751Z" fill="white"/>
</svg>
